www/assets/icons/elderly_woman.svg

<svg xmlns="http://www.w3.org/2000/svg" width="24" height="24" viewBox="0 0 24 24" fill='currentColor'><path d="M17.5 11c-1.56 0-2.92-.9-3.58-2.21l-.79-1.67C13.12 7.1 12.63 6 11.34 6 7.72 6 5 16.69 5 19h2.5l-2.1 2.8L7 23l3-4h2v4h2v-4.03L12 13l.49-2.71A6.02 6.02 0 0 0 16 12.81v.69h1v-1c0-.28.22-.5.5-.5s.5.22.5.5V23h1V12.5c0-.83-.67-1.5-1.5-1.5m-6.9-8.09c-.06.19-.1.38-.1.59 0 1.1.9 2 2 2s2-.9 2-2-.9-2-2-2c-.21 0-.4.04-.59.1-.15-.35-.5-.6-.91-.6-.55 0-1 .45-1 1 0 .41.25.76.6.91"/></svg>

<svg width="24" height="24" viewBox="0 0 24 24" xmlns="http://www.w3.org/2000/svg" fill='currentColor'><path d="M17.5 11C15.94 11 14.58 10.1 13.92 8.79L13.13 7.12C13.12 7.1 12.63 6 11.34 6C7.72 6 5 16.69 5 19H7.5L5.4 21.8L7 23L10 19H12V23H14V18.97L12 13L12.49 10.29C13.3 11.52 14.54 12.43 16 12.81V13.5H17V12.5C17 12.22 17.22 12 17.5 12C17.78 12 18 12.22 18 12.5V23H19V12.5C19 11.67 18.33 11 17.5 11Z"/><path d="M10.6 2.91C10.54 3.1 10.5 3.29 10.5 3.5C10.5 4.6 11.4 5.5 12.5 5.5C13.6 5.5 14.5 4.6 14.5 3.5C14.5 2.4 13.6 1.5 12.5 1.5C12.29 1.5 12.1 1.54 11.91 1.6C11.76 1.25 11.41 1 11 1C10.45 1 10 1.45 10 2C10 2.41 10.25 2.76 10.6 2.91Z"/></svg>
